build/system/BalanceOutline.svg

<svg xmlns="http://www.w3.org/2000/svg" fill="none" viewBox="0 0 24 24" focusable="false"><path d="M0 0H24V24H0z"/><path fill="#74767B" fill-rule="evenodd" d="M14.3933 6.38423C14.1118 7.3569 13.2145 8.06808 12.1511 8.06808C11.0878 8.06808 10.1905 7.3569 9.909 6.38423L7.52571 6.38423L11.0122 16.1283C11.0392 16.204 11.0514 16.2838 11.0514 16.3641C11.0478 16.4926 11.0385 16.6197 11.0238 16.7452C10.9915 17.0199 10.9331 17.2865 10.8511 17.5427C10.3015 19.2597 8.69237 20.5029 6.7929 20.5029C4.89342 20.5029 3.2843 19.2597 2.73471 17.5427C2.61528 17.1696 2.54589 16.7741 2.53441 16.3641C2.53441 16.2837 2.54656 16.2039 2.57363 16.1283L6.32212 5.65187C6.33358 5.61986 6.34748 5.59016 6.36348 5.56278C6.4387 5.28698 6.69099 5.08423 6.99063 5.08423L9.90901 5.08423C10.1905 4.11156 11.0878 3.40039 12.1511 3.40039C13.2145 3.40039 14.1118 4.11156 14.3933 5.08423L17.0089 5.08423C17.3086 5.08423 17.5609 5.28701 17.6361 5.56284C17.6521 5.5902 17.666 5.61988 17.6774 5.65187L21.4259 16.1283C21.453 16.204 21.4651 16.2838 21.4651 16.3641C21.4537 16.7741 21.3843 17.1696 21.2648 17.5427C20.7153 19.2597 19.1061 20.5029 17.2067 20.5029C15.3072 20.5029 13.6981 19.2597 13.1485 17.5427C13.087 17.3506 13.0387 17.1525 13.0049 16.9496C12.9729 16.7585 12.9537 16.563 12.9482 16.3641C12.9482 16.2837 12.9603 16.2039 12.9874 16.1283L16.4738 6.38423L14.3933 6.38423ZM13.185 5.73424C13.185 6.30521 12.7221 6.76808 12.1511 6.76808C11.5802 6.76808 11.1173 6.30521 11.1173 5.73424C11.1173 5.16326 11.5802 4.70039 12.1511 4.70039C12.7221 4.70039 13.185 5.16326 13.185 5.73424ZM6.7929 8.19499L9.67238 16.2427L3.91341 16.2427L6.7929 8.19499ZM6.79289 19.2028C7.96136 19.2028 8.97169 18.5258 9.45307 17.5427L4.13272 17.5427C4.6141 18.5258 5.62444 19.2028 6.79289 19.2028ZM20.0861 16.2427L17.2067 8.19499L14.3272 16.2427L20.0861 16.2427ZM19.8668 17.5427C19.3855 18.5258 18.3751 19.2028 17.2067 19.2028C16.0382 19.2028 15.0279 18.5258 14.5465 17.5427L19.8668 17.5427Z"/></svg>

<svg xmlns="http://www.w3.org/2000/svg" fill="none" viewBox="0 0 24 24" focusable="false"><path fill="#74767B" fill-rule="evenodd" d="M14.39 6.38c-.28.97-1.18 1.68-2.24 1.68-1.07 0-1.96-.71-2.25-1.68H7.52l3.49 9.74c.02.08.04.16.04.24l-.03.38c-.03.27-.09.54-.17.8a4.27 4.27 0 0 1-4.06 2.96c-1.9 0-3.51-1.25-4.06-2.96a4.2 4.2 0 0 1-.2-1.18c0-.08.01-.16.04-.24L6.32 5.65c.01-.04.02-.06.04-.09.07-.28.33-.48.63-.48H9.9c.29-.97 1.18-1.68 2.25-1.68 1.06 0 1.96.71 2.24 1.68H17c.3 0 .56.2.63.48.02.03.03.05.04.09l3.75 10.47c.03.08.04.16.04.24-.01.41-.08.8-.2 1.18a4.27 4.27 0 0 1-4.06 2.96c-1.9 0-3.51-1.25-4.06-2.96-.06-.19-.11-.39-.14-.6a5 5 0 0 1-.06-.58c0-.08.02-.16.04-.24l3.49-9.74zm-1.21-.65c0 .57-.46 1.03-1.03 1.03s-1.04-.46-1.04-1.03.47-1.03 1.04-1.03 1.03.46 1.03 1.03M6.79 8.19l2.88 8.05H3.91zm0 11.01c1.17 0 2.18-.68 2.66-1.66H4.13c.48.98 1.49 1.66 2.66 1.66m13.29-2.96L17.2 8.19l-2.88 8.05zm-.22 1.3a2.962 2.962 0 0 1-5.32 0z"/></svg>
